X:145
T:Salim Halak (Give Yourself Up)
R:reel
C: 2010 L.E. McCullough  
M:4/4
L:1/8
K:Bminor
|:EGBd e3d|cBcd c~A3|EGBd e3d|(3Bcd fd e3d|
EGBd e3d|c~A3 B~G3|AGFA BGBd|1cAAG A3G:|2cAAG A2de|]
|:~f3d ~e3d|Bdga gfed|~f3d edcd|eAcd e2dc|BFBd cAce|
dG (3Bcd gfed|f~B3 fBgB|1EAcd B2de:|2EAcd B3D|]

